assets/images/arrow-left.svg

<?xml version="1.0" encoding="utf-8"?>
<!-- Generated by IcoMoon.io -->
<!DOCTYPE svg PUBLIC "-//W3C//DTD SVG 1.1//EN" "http://www.w3.org/Graphics/SVG/1.1/DTD/svg11.dtd">
<svg version="1.1" xmlns="http://www.w3.org/2000/svg" xmlns:xlink="http://www.w3.org/1999/xlink" width="500" height="500" viewBox="0 0 500 500">
<g id="icomoon-ignore">
	<line stroke-width="1" x1="" y1="" x2="" y2="" stroke="#449FDB" opacity=""></line>
</g>
	<path d="M250 0c138.071 0 250 111.929 250 250s-111.929 250-250 250-250-111.929-250-250 111.929-250 250-250zM218.75 359.375v-78.125h156.25v-62.5h-156.25v-78.125l-109.375 109.375 109.375 109.375z" fill="#555"></path>
</svg>

<svg xmlns="http://www.w3.org/2000/svg" width="500" height="500" viewBox="0 0 500 500"><path d="M250 0c138.071 0 250 111.929 250 250S388.071 500 250 500 0 388.071 0 250 111.929 0 250 0zm-31.25 359.375V281.25H375v-62.5H218.75v-78.125L109.375 250 218.75 359.375z" fill="#555"/></svg>
